X: 30273
T: Old Lord Gordon's
R: reel
M: 4/4
K: Dmajor
dB|AD~D2 AD~D2|AD~D2 A2GA|B2GB EBGB|defd BAFA|
dcdf efdB|AF~F2 ABdf|afef dBAF|EFGA B2:|
|:ag|fada fadg|fadf a2gf|gbef gbef|gfga bafa|
afeg fedB|AF~F2 ABdf|afef dBAF|EFGA B2:|
|:ag|fadf afde|fadf a2gf|gbef gbef|gfga bafa|
afeg fedB|AF~F2 ABdf|afef dBAF|EFGA B2:|

